X: 18705
T: I'm Waiting For You
R: reel
M: 4/4
K: Gmajor
|:G2 dG BGdG|AGFG ABcA|BAGF GABc|defd cAFA|
BG G2 dGBG|(3EFG AB c2 BA|B2dB cBAG|1 FDEF G3F:|2 FDEF GABd||
|:g2fg edBG|FDAD BDAD|EDEF G3A|(3Bcd ^ce d2ef|
g2fg edBG|FDAD BDAD|G2 FG DGBd|1 cAFA GABd:|2 cAFA GDEF||

